.local/share/icons/Gruvbox-Plus-Dark/panel/24/remmina-panel.svg

<svg xmlns="http://www.w3.org/2000/svg" width="24" height="24" version="1.1">
 <defs>
  <style id="current-color-scheme" type="text/css">
   .ColorScheme-Text { color:#ebdbb2; } .ColorScheme-Highlight { color:#458588; }
  </style>
 </defs>
 <path style="fill:currentColor" class="ColorScheme-Text" d="m 12,4 a 8,8 0 0 0 -8,8 8,8 0 0 0 0.9921875,3.857422 L 6.6660156,14.744141 A 6,6 0 0 1 6,12 6,6 0 0 1 12,6 6,6 0 0 1 16.59375,8.1503906 L 18.265625,7.0371094 A 8,8 0 0 0 12,4 Z M 9,7.5996094 V 9.541016 L 10.289063,10.400391 9,11.259766 v 1.939453 l 4.199219,-2.798828 z M 19.011719,8.1503906 17.337891,9.263672 A 6,6 0 0 1 18,12 6,6 0 0 1 12,18 6,6 0 0 1 7.4121094,15.857422 L 5.7402344,16.96875 A 8,8 0 0 0 12,20 8,8 0 0 0 20,12 8,8 0 0 0 19.011719,8.1503906 Z M 15,10.800781 10.800781,13.599609 15,16.400391 V 14.458984 L 13.710938,13.599609 15,12.740234 Z"/>
</svg>

<svg width="24" height="24" version="1.1" xmlns="http://www.w3.org/2000/svg">
  <defs>
    <style id="current-color-scheme" type="text/css">.ColorScheme-Text { color:#ebdbb2; } .ColorScheme-Highlight { color:#458588; } .ColorScheme-NeutralText { color:#fe8019; } .ColorScheme-PositiveText { color:#689d6a; } .ColorScheme-NegativeText { color:#fb4934; }</style>
  </defs>
  <path class="ColorScheme-Text" d="m12 4a8 8 0 0 0-8 8 8 8 0 0 0 0.9922 3.857l1.674-1.113a6 6 0 0 1-0.666-2.744 6 6 0 0 1 6-6 6 6 0 0 1 4.594 2.15l1.672-1.113a8 8 0 0 0-6.266-3.037zm-3 3.6v1.941l1.289 0.8594-1.289 0.8594v1.939l4.199-2.799zm10.01 0.5508-1.674 1.113a6 6 0 0 1 0.6621 2.736 6 6 0 0 1-6 6 6 6 0 0 1-4.588-2.143l-1.672 1.111a8 8 0 0 0 6.26 3.031 8 8 0 0 0 8-8 8 8 0 0 0-0.9883-3.85zm-4.012 2.65-4.199 2.799 4.199 2.801v-1.941l-1.289-0.8594 1.289-0.8594z" fill="currentColor"/>
</svg>
